X: 122169
T: Lonely Lobster
C: BB 4/06
N: 227
L: 1/8
M: 6/8
R: jig
Q: 1/4=175
K: G
A|"G"BGG "Am"cAA | "G"BGG "Am"A2c | "G"ded "C"cGE | "G"DGB "D"AFD|
"G"BGG "Am"cAA | "G"ded "Am"c2A |"G"Bcd "Am"ecA | "D"AGF "G"G2 :|
A | "G"Bcd gfg | "C"ege "G"dBG | "Am" Ace a^ga | "D"fdd d2e |
"G"bgg "D"fdd | "C" cBc "G"dBG | "Em" EGB "C"cBc | "D"AGF "G"G2 :|
